blockchains/stellar/logo.svg

<svg fill="none" height="256" viewBox="0 0 256 256" width="256" xmlns="http://www.w3.org/2000/svg" xmlns:xlink="http://www.w3.org/1999/xlink"><clipPath id="a"><path d="m0 0h256v256h-256z"/></clipPath><g clip-path="url(#a)"><path d="m128 256c70.692 0 128-57.308 128-128 0-70.6925-57.308-128-128-128-70.6925 0-128 57.3075-128 128 0 70.692 57.3075 128 128 128z" fill="#fff"/><g fill="#000"><path d="m189.245 76.3185-20.549 10.4699-99.2335 50.5446c-.3356-2.559-.5044-5.138-.5055-7.719.0136-10.299 2.7175-20.416 7.844-29.348 5.1264-8.9321 12.4975-16.3702 21.383-21.5772 8.886-5.207 18.977-8.0023 29.276-8.1091 10.298-.1067 20.445 2.4789 29.437 7.5006l11.762-5.9931 1.755-.8953c-10.775-7.8208-23.503-12.51-36.776-13.5496-13.274-1.0395-26.576 1.6112-38.4375 7.6591-11.8613 6.0479-21.8194 15.2576-28.7738 26.6112-6.9544 11.3534-10.6342 24.4084-10.6329 37.7234 0 1.838.0698 3.67.2094 5.494.1956 2.584-.3774 5.168-1.6468 7.427-1.2695 2.258-3.1786 4.091-5.4871 5.267l-6.2026 3.163v14.752l18.261-9.308 5.9137-3.018 5.827-2.968 104.6126-53.3022 11.755-5.9859 24.297-12.3834v-14.7445z"/><path d="m213.333 93.5322-134.722 68.5958-11.7552 6-24.1891 12.326v14.737l24.0231-12.239 20.5499-10.469 99.3343-50.617c.336 2.576.504 5.171.505 7.769-.006 10.311-2.709 20.441-7.841 29.384-5.131 8.943-12.512 16.389-21.411 21.597-8.898 5.209-19.004 8-29.315 8.095-10.31.096-20.466-2.507-29.4594-7.549l-.7221.382-12.7516 6.499c10.7726 7.821 23.4981 12.512 36.7691 13.554s26.573-1.605 38.434-7.649 21.821-15.249 28.778-26.599c6.958-11.349 10.642-24.401 10.646-37.714 0-1.855-.072-3.711-.209-5.545-.195-2.583.377-5.166 1.645-7.424s3.175-4.092 5.482-5.27l6.209-3.163z"/></g></g></svg>

<svg width="256" height="256" viewBox="0 0 256 256" fill="none" xmlns="http://www.w3.org/2000/svg">
<g clip-path="url(#clip0_9_843)">
<path d="M128 256C198.692 256 256 198.692 256 128C256 57.3075 198.692 0 128 0C57.3075 0 0 57.3075 0 128C0 198.692 57.3075 256 128 256Z" fill="white"/>
<path d="M189.245 76.3185L168.696 86.7884L69.4625 137.333C69.1269 134.774 68.9581 132.195 68.957 129.614C68.9706 119.315 71.6745 109.198 76.801 100.266C81.9274 91.3339 89.2985 83.8958 98.184 78.6888C107.07 73.4818 117.161 70.6865 127.46 70.5797C137.758 70.473 147.905 73.0586 156.897 78.0803L168.659 72.0872L170.414 71.1919C159.639 63.3711 146.911 58.6819 133.638 57.6423C120.364 56.6028 107.062 59.2535 95.2005 65.3014C83.3392 71.3493 73.3811 80.559 66.4267 91.9126C59.4723 103.266 55.7925 116.321 55.7938 129.636C55.7938 131.474 55.8636 133.306 56.0032 135.13C56.1988 137.714 55.6258 140.298 54.3564 142.557C53.0869 144.815 51.1778 146.648 48.8693 147.824L42.6667 150.987V165.739L60.9277 156.431L66.8414 153.413L72.6684 150.445L177.281 97.1428L189.036 91.1569L213.333 78.7735V64.029L189.245 76.3185Z" fill="black"/>
<path d="M213.333 93.5322L78.611 162.128L66.8558 168.128L42.6667 180.454V195.191L66.6898 182.952L87.2397 172.483L186.574 121.866C186.91 124.442 187.078 127.037 187.079 129.635C187.073 139.946 184.37 150.076 179.238 159.019C174.107 167.962 166.726 175.408 157.827 180.616C148.929 185.825 138.823 188.616 128.512 188.711C118.202 188.807 108.046 186.204 99.0526 181.162L98.3305 181.544L85.5789 188.043C96.3515 195.864 109.077 200.555 122.348 201.597C135.619 202.639 148.921 199.992 160.782 193.948C172.643 187.904 182.603 178.699 189.56 167.349C196.518 156 200.202 142.948 200.206 129.635C200.206 127.78 200.134 125.924 199.997 124.09C199.802 121.507 200.374 118.924 201.642 116.666C202.91 114.408 204.817 112.574 207.124 111.396L213.333 108.233V93.5322Z" fill="black"/>
</g>
<defs>
<clipPath id="clip0_9_843">
<rect width="256" height="256" fill="white"/>
</clipPath>
</defs>
</svg>
